icon-themes/sifr_svg/cmd/sc_heading5parastyle.svg

<svg viewBox="0 0 16 16" xmlns="http://www.w3.org/2000/svg"><path d="m2 2v12h2v-5h3v5h2v-12h-2v5h-3v-5zm10 2a2 2 0 0 0 -2 2v4h2 2v2h-2v-1h-2v1a2 2 0 0 0 2 2h2a2 2 0 0 0 2-2v-2a2 2 0 0 0 -2-2h-2v-2h3v-2z" fill="#555753"/></svg>

<svg xmlns="http://www.w3.org/2000/svg" viewBox="0 0 16 16">
  <path
     style="fill:#555753"
     d="M 2 2 L 2 14 L 4 14 L 4 9 L 7 9 L 7 14 L 9 14 L 9 2 L 7 2 L 7 7 L 4 7 L 4 2 L 2 2 z M 12 4 A 2 2 0 0 0 10 6 L 10 10 L 12 10 L 14 10 L 14 12 L 12 12 L 12 11 L 10 11 L 10 12 A 2 2 0 0 0 12 14 L 14 14 A 2 2 0 0 0 16 12 L 16 10 A 2 2 0 0 0 14 8 L 12 8 L 12 6 L 15 6 L 15 4 L 12 4 z "
     />
</svg>
